public/images/loginTelegram.svg

<svg width="40" height="40" viewBox="0 0 40 40" fill="none" xmlns="http://www.w3.org/2000/svg">
<g clip-path="url(#clip0_414_63866)">
<path d="M17.4172 23.181L17.0202 28.765C17.5882 28.765 17.8342 28.521 18.1292 28.228L20.7922 25.683L26.3102 29.724C27.3222 30.288 28.0352 29.991 28.3082 28.793L31.9302 11.821L31.9312 11.82C32.2522 10.324 31.3902 9.73904 30.4042 10.106L9.11418 18.257C7.66118 18.821 7.68318 19.631 8.86718 19.998L14.3102 21.691L26.9532 13.78C27.5482 13.386 28.0892 13.604 27.6442 13.998L17.4172 23.181Z" fill="#EAE0FF"/>
</g>
<rect x="0.5" y="0.5" width="39" height="39" rx="7.5" stroke="#EAE0FF"/>
<defs>
<clipPath id="clip0_414_63866">
<rect width="24" height="24" fill="white" transform="translate(8 8)"/>
</clipPath>
</defs>
</svg>

<svg width="40" height="40" fill="none" xmlns="http://www.w3.org/2000/svg"><g clip-path="url(#a)"><path d="m17.417 23.181-.397 5.584c.568 0 .814-.244 1.11-.537l2.662-2.545 5.518 4.041c1.012.564 1.725.267 1.998-.931l3.622-16.972.001-.001c.321-1.496-.54-2.081-1.527-1.714l-21.29 8.151c-1.453.564-1.43 1.374-.247 1.741l5.443 1.693 12.643-7.911c.595-.394 1.136-.176.691.218l-10.227 9.183Z" fill="#EAE0FF"/></g><rect x=".5" y=".5" width="39" height="39" rx="7.5" stroke="#EAE0FF"/><defs><clipPath id="a"><path fill="#fff" transform="translate(8 8)" d="M0 0h24v24H0z"/></clipPath></defs></svg>
